svg/upload_multiple.svg

<svg xmlns="http://www.w3.org/2000/svg" viewBox="0 0 24 24"><path d="M9 14V8H5l7-7 7 7h-4v6zm-4 4v-2h14v2zm14 2H5v2h14z"/></svg>

<?xml version="1.0" encoding="UTF-8"?><!DOCTYPE svg PUBLIC "-//W3C//DTD SVG 1.1//EN" "http://www.w3.org/Graphics/SVG/1.1/DTD/svg11.dtd"><svg xmlns="http://www.w3.org/2000/svg" xmlns:xlink="http://www.w3.org/1999/xlink" version="1.1" id="mdi-upload-multiple" width="24" height="24" viewBox="0 0 24 24"><path d="M9,14V8H5L12,1L19,8H15V14H9M5,18V16H19V18H5M19,20H5V22H19V20Z" /></svg>
